X: 602
%
U:~=!turn!
U:k=!crescendo(!
U:m=!crescendo)!
U:n=!diminuendo(!
U:p=!diminuendo)!
T: Talisker
C:James Scott Skinner
O:Scotland
B:Keith Norman MacDonald : "The Skye collection of the best reels & strathspeys extant" : 1887
Z:Ralph Palmer
R:Reel
M:C|
L:1/8
K:D
c | {/c}d2 fd (AF)GA | .B.c.d.e .c.A.B.c | {/c}d2 (fd) .A.F.G.A | .B.d.c.e (d2 [Fd]) :| B | AFGA Bcdf | kedcmB neAApB |
AFGA Bcde | fedc (d2 [Fd])B | AFGA Bcde | kedcmB ncAApc | {/c}d2 fd (AF).G.A | .B.G.E.C D2 D |]


